remix/Buildings/hotel-line.svg

<svg viewBox="0 0 24 24" xmlns="http://www.w3.org/2000/svg"><path fill="none" d="M0 0h24v24H0Z"/><path d="M22 21H2v-2h1V4v0c0-.56.44-1 1-1h14v0c.55 0 1 .44 1 1v5h2v10h1v2Zm-5-2h2v-8h-6v8h2v-6h2v6Zm0-10V5H5v14h6V9h6ZM7 11h2v2H7v-2Zm0 4h2v2H7v-2Zm0-8h2v2H7V7Z"/></svg>

<svg viewBox="0 0 24 24" fill="currentColor" xmlns="http://www.w3.org/2000/svg"><path d="M22 21H2V19H3V4C3 3.44772 3.44772 3 4 3H18C18.5523 3 19 3.44772 19 4V9H21V19H22V21ZM17 19H19V11H13V19H15V13H17V19ZM17 9V5H5V19H11V9H17ZM7 11H9V13H7V11ZM7 15H9V17H7V15ZM7 7H9V9H7V7Z"/></svg>
